images_sukapura_svg/cmd/32/fontwork.svg

<svg viewBox="0 0 32 32" xmlns="http://www.w3.org/2000/svg" xmlns:xlink="http://www.w3.org/1999/xlink"><filter id="a" color-interpolation-filters="sRGB" height="1.116308" width="1.189" x="-.0945" y="-.058154"><feGaussianBlur stdDeviation=".63"/></filter><path d="m8.5 3c-.277 0-.5.223-.5.5v4 6 4 11c0 .277.223.5.5.5h5c.277 0 .5-.223.5-.5v-10.5h6.5c.277 0 .5-.223.5-.5v-4c0-.277-.223-.5-.5-.5h-6.5v-5h9.5c.277 0 .5-.223.5-.5v-4c0-.277-.223-.5-.5-.5h-10z" fill="#0040dd" filter="url(#a)"/><path d="m9 4v24h4v-11h7v-3h-7v-7h10v-3h-10z" fill="#fff"/></svg>

<?xml version="1.0" encoding="UTF-8" standalone="no"?>
<svg
   xmlns:dc="http://purl.org/dc/elements/1.1/"
   xmlns:cc="http://creativecommons.org/ns#"
   xmlns:rdf="http://www.w3.org/1999/02/22-rdf-syntax-ns#"
   xmlns:svg="http://www.w3.org/2000/svg"
   xmlns="http://www.w3.org/2000/svg"
   xmlns:sodipodi="http://sodipodi.sourceforge.net/DTD/sodipodi-0.dtd"
   xmlns:inkscape="http://www.inkscape.org/namespaces/inkscape"
   viewBox="0 0 32 32"
   version="1.1"
   id="svg4"
   sodipodi:docname="fontwork.svg"
   inkscape:version="0.92.3 (unknown)">
  <metadata
     id="metadata10">
    <rdf:RDF>
      <cc:Work
         rdf:about="">
        <dc:format>image/svg+xml</dc:format>
        <dc:type
           rdf:resource="http://purl.org/dc/dcmitype/StillImage" />
        <dc:title></dc:title>
      </cc:Work>
    </rdf:RDF>
  </metadata>
  <defs
     id="defs8">
    <filter
       inkscape:collect="always"
       style="color-interpolation-filters:sRGB"
       id="filter857"
       x="-0.0945"
       width="1.189"
       y="-0.058153846"
       height="1.1163077">
      <feGaussianBlur
         inkscape:collect="always"
         stdDeviation="0.63"
         id="feGaussianBlur859" />
    </filter>
  </defs>
  <sodipodi:namedview
     pagecolor="#ffffff"
     bordercolor="#666666"
     borderopacity="1"
     objecttolerance="10"
     gridtolerance="10"
     guidetolerance="10"
     inkscape:pageopacity="0"
     inkscape:pageshadow="2"
     inkscape:window-width="1366"
     inkscape:window-height="706"
     id="namedview6"
     showgrid="true"
     inkscape:zoom="14.75"
     inkscape:cx="17.561007"
     inkscape:cy="20.120368"
     inkscape:window-x="0"
     inkscape:window-y="0"
     inkscape:window-maximized="1"
     inkscape:current-layer="svg4">
    <inkscape:grid
       type="xygrid"
       id="grid817"
       spacingx="0.5"
       spacingy="0.5"
       empspacing="2" />
  </sodipodi:namedview>
  <path
     style="opacity:1;fill:#0040dd;fill-opacity:1;stroke:none;stroke-width:1;stroke-linecap:round;stroke-linejoin:round;stroke-miterlimit:4;stroke-dasharray:none;stroke-opacity:1;filter:url(#filter857)"
     d="M 8.5 3 C 8.223 3 8 3.223 8 3.5 L 8 7.5 L 8 13.5 L 8 17.5 L 8 28.5 C 8 28.777 8.223 29 8.5 29 L 13.5 29 C 13.777 29 14 28.777 14 28.5 L 14 18 L 20.5 18 C 20.777 18 21 17.777 21 17.5 L 21 13.5 C 21 13.223 20.777 13 20.5 13 L 14 13 L 14 8 L 23.5 8 C 23.777 8 24 7.777 24 7.5 L 24 3.5 C 24 3.223 23.777 3 23.5 3 L 13.5 3 L 8.5 3 z "
     id="rect826" />
  <path
     style="opacity:1;fill:#ffffff;fill-opacity:1;stroke:none;stroke-width:1;stroke-linecap:round;stroke-linejoin:round;stroke-miterlimit:4;stroke-dasharray:none;stroke-opacity:1"
     d="M 9 4 L 9 28 L 13 28 L 13 17 L 20 17 L 20 14 L 13 14 L 13 7 L 23 7 L 23 4 L 13 4 L 9 4 z "
     id="rect819" />
</svg>
